X:13
T:Goldenrod
R:jig
C:Wilfred Gillis
D:Laments and Merry Melodies, Theresa Morrison
Z:Paul Stewart Cranford (P.S.C.), <http://www.cranfordpub.com>
Q:300
L:1/8
M:12/8
K:D
g|f3 fce dAF DFA|dcd bfa g3 e2f|g3 gec Ace gag|fce dAG F3 FAd|
f3 fce dAF DFA|1dcd bfa g3 gfa|g3 gfa gec Ace|aba ABc d3 d2:|
[2dcd bfa g3 Bcd|e3 edf eBd c2 B|Ace gfe d3 d2||
|:F/G/|A3 AFA dfd AFG|AFA ded c3 E2 F|G3 GFG e2 f e2 d|cBc dAG F3 DFG|
A3 AFA dfd AFG|AFA ded B3 GBc|d3 dcB Ace a2 f|gec ABc d3 d2:|
